public/icons/icon/group.svg

<svg width="30" height="30" viewBox="0 0 30 30" fill="none" xmlns="http://www.w3.org/2000/svg">
<path d="M2.8999 1.8999C2.63468 1.8999 2.38033 2.00526 2.19279 2.1928C2.00526 2.38034 1.8999 2.63469 1.8999 2.89991L1.89993 6.89991C1.89994 7.45219 2.34766 7.89991 2.89994 7.8999C3.45223 7.8999 3.89994 7.45218 3.89993 6.89989L3.89991 3.8999H6.89993C7.45222 3.8999 7.89993 3.45219 7.89993 2.8999C7.89993 2.34762 7.45222 1.8999 6.89993 1.8999H2.8999Z" fill="black"/>
<path d="M11.8999 1.8999C11.3476 1.8999 10.8999 2.34762 10.8999 2.8999C10.8999 3.45219 11.3476 3.8999 11.8999 3.8999H17.8999C18.4522 3.8999 18.8999 3.45219 18.8999 2.8999C18.8999 2.34762 18.4522 1.8999 17.8999 1.8999H11.8999Z" fill="black"/>
<path d="M10.8999 26.8999C10.8999 26.3476 11.3476 25.8999 11.8999 25.8999H17.8999C18.4522 25.8999 18.8999 26.3476 18.8999 26.8999C18.8999 27.4522 18.4522 27.8999 17.8999 27.8999H11.8999C11.3476 27.8999 10.8999 27.4522 10.8999 26.8999Z" fill="black"/>
<path d="M3.8999 11.8999C3.8999 11.3476 3.45219 10.8999 2.8999 10.8999C2.34762 10.8999 1.8999 11.3476 1.8999 11.8999V17.8999C1.8999 18.4522 2.34762 18.8999 2.8999 18.8999C3.45219 18.8999 3.8999 18.4522 3.8999 17.8999V11.8999Z" fill="black"/>
<path d="M26.8999 10.8999C27.4522 10.8999 27.8999 11.3476 27.8999 11.8999V17.8999C27.8999 18.4522 27.4522 18.8999 26.8999 18.8999C26.3476 18.8999 25.8999 18.4522 25.8999 17.8999V11.8999C25.8999 11.3476 26.3476 10.8999 26.8999 10.8999Z" fill="black"/>
<path d="M22.8999 1.8999C22.3476 1.8999 21.8999 2.34762 21.8999 2.8999C21.8999 3.45219 22.3476 3.8999 22.8999 3.8999H25.8999V6.8999C25.8999 7.45219 26.3476 7.8999 26.8999 7.8999C27.4522 7.8999 27.8999 7.45219 27.8999 6.8999V2.8999C27.8999 2.34762 27.4504 1.8999 26.8981 1.8999H22.8999Z" fill="black"/>
<path d="M2.8999 21.8999C3.45219 21.8999 3.8999 22.3476 3.8999 22.8999V25.8999H6.89993C7.45222 25.8999 7.89993 26.3476 7.89993 26.8999C7.89993 27.4522 7.45222 27.8999 6.89993 27.8999H2.8999C2.34762 27.8999 1.8999 27.4522 1.8999 26.8999V22.8999C1.8999 22.3476 2.34762 21.8999 2.8999 21.8999Z" fill="black"/>
<path d="M27.8999 22.8999C27.8999 22.3476 27.4522 21.8999 26.8999 21.8999C26.3476 21.8999 25.8999 22.3476 25.8999 22.8999L25.8982 25.8999H22.8999C22.3476 25.8999 21.8999 26.3476 21.8999 26.8999C21.8999 27.4522 22.3476 27.8999 22.8999 27.8999H26.8999C27.4522 27.8999 27.8999 27.4522 27.8999 26.8999L27.8999 22.8999Z" fill="black"/>
</svg>

<svg xmlns="http://www.w3.org/2000/svg" width="30" height="30" fill="none"><path fill="#000" d="M2.9 1.9a1 1 0 0 0-1 1v4a1 1 0 0 0 2 0v-3h3a1 1 0 1 0 0-2h-4ZM11.9 1.9a1 1 0 1 0 0 2h6a1 1 0 1 0 0-2h-6ZM10.9 26.9a1 1 0 0 1 1-1h6a1 1 0 1 1 0 2h-6a1 1 0 0 1-1-1ZM3.9 11.9a1 1 0 1 0-2 0v6a1 1 0 1 0 2 0v-6ZM26.9 10.9a1 1 0 0 1 1 1v6a1 1 0 1 1-2 0v-6a1 1 0 0 1 1-1ZM22.9 1.9a1 1 0 1 0 0 2h3v3a1 1 0 1 0 2 0v-4c0-.552-.45-1-1.002-1H22.9ZM2.9 21.9a1 1 0 0 1 1 1v3h3a1 1 0 1 1 0 2h-4a1 1 0 0 1-1-1v-4a1 1 0 0 1 1-1ZM27.9 22.9a1 1 0 1 0-2 0l-.002 3H22.9a1 1 0 1 0 0 2h4a1 1 0 0 0 1-1v-4Z"/></svg>
